X: 18
T: Bucks Of Oranmore, The
Z: leprecawn
S: https://thesession.org/tunes/2#setting48833
R: reel
M: 4/4
L: 1/8
K: Dmaj
|:A2 FA A2dB|A2FA BEE2|1 A2 FA A2Bd|egfd edBd:|2 D3F ADFA|defd efdB||
|:ADD2 ADBD|ADFA BEE2|1 ADD2 ADFA|defd efdB:|2 D3F ADFA|defd efdf||
|:a2fd edef|a2fd edBd|1 a2fd efdf|gefd edBd:|2 faa2 bfaf|defd e2de||
|:f2df efde|f2df edBd|1 f2df efdf|gefd edBd:|2 faa2 bfaf|defd e2 dB||
|:Adfd edfd|Adfd edBd|Adfd edef|gefd edBd|
Adfd Adfd Adfd edBd|faa2 bfaf|defd e2dB:|

